X:1
T:Title
%%score 1 ( 2 3 )
L:1/8
Q:1/4=80
M:6/8
K:G
V:1 treble nm="Grand Piano, Soprano"
V:2 bass nm="Choir Pad, Bass"
V:3 bass 
V:1
 G/A<[GB][GB]/ [GB][DA][DG] | D[CE]>[CG] [CG] [B,G]2 | [DG]/[DG]/[DF]<[FA] [FA] [FA]2 | %3
 [DA]/[DA]/[DG]<[GB] [GB] [GB]2 | G/A<[GB][GB]/ [GB][DA][DG] | D[CE]>[CG] [CG] [B,G]2 | %6
 [GB]/[GB]/[FA]<[FA] [Fc]/[Fc]/[GB]<[GB] | [FA] G2- G2- G/ z/ | [DG]/[DG]<[FA][FA]/ [FA] [Fd]2 | %9
 [FA]/[FA]<[GB][G_B]/ [G=B] G2 | [DG]/[DG]<[FA][FA]/ [FA] [Fd]2 | [DF]/[DF]/[^CA][CG] [CE] D2 | %12
 G/A<[GB][GB]/ [GB][DA][DG] | D[CE]>[CG] [CG] [B,G]2 | [GB]/[GB]/[FA]<[FA] [Fc]/[Fc]/[GB]<[GB] | %15
 [FA] G2- G2- G/ z/ |] %16
V:2
 B,/C<[G,D][G,D]/ [G,D][G,C][G,B,] | [B,,G,][C,G,]>[C,E,] [C,E,] [G,,D,]2 | %2
w: By~John~Robson~Sweney * * * * * *||
 [G,B,]/[G,B,]/[D,A,]<[D,C] [D,C] [D,C]2 | [F,C]/[F,C]/[G,B,]<[G,D] [G,D] [G,D]2 | %4
w: ||
 B,/[K:treble]C<[G,D][G,D]/ [G,D][G,C][K:bass][G,B,] | [B,,G,][C,G,]>[C,E,] [C,E,] [G,,D,]2 | %6
w: ||
 [G,D]/[G,D]/[D,D]<[D,D] [D,A,]/[D,A,]/[D,D]<[D,D] | [D,C] [G,B,]2- [G,B,]2- [G,B,]/ z/ | %8
w: ||
 [G,B,]/[G,B,]<[D,D][D,D]/ [D,D] [D,A,]2 | [D,D]/[D,D]<[G,D][G,^C]/ [G,D] [G,B,]2 | %10
w: ||
 [G,B,]/[G,B,]<[D,D][D,D]/ [D,D] [D,A,]2 | z3 z .F,2 | %12
w: ||
 B,/[K:treble]C<[G,D][G,D]/ [G,D][G,C][K:bass][G,B,] | [B,,G,][C,G,]>[C,E,] [C,E,] [G,,D,]2 | %14
w: ||
 [G,D]/[G,D]/[D,D]<[D,D] [D,A,]/[D,A,]/[D,D]<[D,D] | [D,C] [G,B,]2- [G,B,]2- [G,B,]/ z/ |] %16
w: ||
V:3
 .G,3 z3 | x6 | x6 | x6 | .G,3[K:treble] z3[K:bass] | x6 | x6 | x6 | x6 | x6 | x6 | %11
 [D,A,]/[D,A,]/[A,,A,][A,,E,] [A,,G,]D,-[D,C] | .G,3[K:treble] z3[K:bass] | x6 | x6 | x6 |] %16

